src/images/icon/icon_external_link.svg

<svg height="20" viewBox="0 0 20 20" width="20" xmlns="http://www.w3.org/2000/svg"><g fill="none" fill-rule="evenodd" transform="translate(5.178808 2.839698)"><path d="m4.283 4.49339053-2.54554513 2.54602323 3.19236268 3.19236264 2.76718245-2.76838587.00089311 3.78741807c0 .4236316-.34342131.7670529-.76705297.7670529h-6.16378717c-.42363166 0-.76705297-.3434213-.76705297-.7670529v-5.99036509c0-.42363166.34342131-.76705298.76705297-.76705298zm2.64784014 0c.42363166 0 .76705297.34342132.76705297.76705298l-.00089311.60694702-2.74878826 2.74981038-1.59618134-1.59618134 2.5279696-2.52762904z" fill="#b6c2cd"/><g transform="matrix(.70710678 -.70710678 .70710678 .70710678 1.489818 5.171071)"><path d="m2.26322345 2.48937589 2.89674674 2.96351023c.12338372.12622743.32573353.12853272.45196097.005149.00173583-.00169673.00345228-.00341317.005149-.005149l2.89674674-2.96351023c.14806046-.15147292.14529412-.3942927-.0061788-.54235316-.07165778-.07004343-.16788279-.1092605-.26808718-.1092605h-5.70207149c-.21181583 0-.38352648.17171065-.38352648.38352648 0 .10020439.03921707.19642941.1092605.26808718z" fill="#36435c" transform="matrix(0 -1 1 0 1.626289 9.150761)"/><path d="m0 3.762236h5.77342" stroke="#36435c" stroke-width="2.301159"/></g></g></svg>

<?xml version="1.0" encoding="UTF-8"?>
<svg width="20px" height="20px" viewBox="0 0 20 20" version="1.1" xmlns="http://www.w3.org/2000/svg" xmlns:xlink="http://www.w3.org/1999/xlink">
    
    <g id="Dashboard" stroke="none" stroke-width="1" fill="none" fill-rule="evenodd">
        <g id="00-Menu-交互备份" transform="translate(-499.000000, -299.000000)">
            <g id="icon_close" transform="translate(499.000000, 299.000000)">
                <g id="编组-25" transform="translate(5.178808, 2.839698)">
                    <path d="M4.283,4.49339053 L1.73745487,7.03941376 L4.92981755,10.2317764 L7.697,7.46339053 L7.69789311,11.2508086 C7.69789311,11.6744402 7.3544718,12.0178615 6.93084014,12.0178615 L0.767052972,12.0178615 C0.343421313,12.0178615 -1.70164689e-16,11.6744402 0,11.2508086 L0,5.26044351 C-5.18799155e-17,4.83681185 0.343421313,4.49339053 0.767052972,4.49339053 L4.283,4.49339053 Z M6.93084014,4.49339053 C7.3544718,4.49339053 7.69789311,4.83681185 7.69789311,5.26044351 L7.697,5.86739053 L4.94821174,8.61720091 L3.3520304,7.02101957 L5.88,4.49339053 L6.93084014,4.49339053 Z" id="形状结合" fill="#B6C2CD"></path>
                    <g id="编组-24" transform="translate(6.735656, 5.245838) rotate(-45.000000) translate(-6.735656, -5.245838) translate(3.079157, 1.483602)">
                        <path d="M2.26322345,2.48937589 L5.15997019,5.45288612 C5.28335391,5.57911355 5.48570372,5.58141884 5.61193116,5.45803512 C5.61366699,5.45633839 5.61538344,5.45462195 5.61708016,5.45288612 L8.5138269,2.48937589 C8.66188736,2.33790297 8.65912102,2.09508319 8.5076481,1.94702273 C8.43599032,1.8769793 8.33976531,1.83776223 8.23956092,1.83776223 L2.53748943,1.83776223 C2.3256736,1.83776223 2.15396295,2.00947288 2.15396295,2.22128871 C2.15396295,2.3214931 2.19318002,2.41771812 2.26322345,2.48937589 Z" id="Path" fill="#36435C" transform="translate(5.388525, 3.762236) rotate(-90.000000) translate(-5.388525, -3.762236) "></path>
                        <line x1="0" y1="3.7622355" x2="5.77341983" y2="3.7622355" id="路径-3" stroke="#36435C" stroke-width="2.30115892"></line>
                    </g>
                </g>
            </g>
        </g>
    </g>
</svg>
